X: 125
T:Stone's Rag
M:4/4
L:1/8
Q:160
C:Old Time
S:From Brody's Fakebook
R:Rag
K:C
A2|:"C"cdeg- ga-ge-|ag-eg- ga-g|"F"FGAc- cd-cA|"D"dc-Ac- cd-cA|!
"G"Bd-BG- G^FGA|Bd-BG- G^F-G2|[1"C"cdeg- ga-ge|"G"g6 e2:|[2ge-ga- ag-e2|
!
"C"c6g2||"A"ag-ea- ag-e|ag-ea- ag-e|"D"dc-Ad- dc-A|dc-Ad- dc-A|"G"Bd-BG-
 G^F(GA|!
Bd-BG- G^F-G2|"C"cdeg- ga-g(e|g4)"E"^g4||"A"a=g-ea- age2|ag-ea- age2|"D"
dc-Ad- dcA2|!
dc-Ad- dcA2|"F"c'4 a4|"C"ga-ge- ed-c(A|"D"G)A-ce- "G"ec-d2|"C"c8|]

